public/icons/file_upload.svg

<svg width="24" height="24" viewBox="0 0 24 24" fill="none" xmlns="http://www.w3.org/2000/svg">
<path d="M7.38948 8.98354H6.45648C4.42148 8.98354 2.77148 10.6335 2.77148 12.6685V17.5435C2.77148 19.5775 4.42148 21.2275 6.45648 21.2275H17.5865C19.6215 21.2275 21.2715 19.5775 21.2715 17.5435V12.6585C21.2715 10.6295 19.6265 8.98354 17.5975 8.98354L16.6545 8.98354" stroke="#4E4B66" stroke-width="1.5" stroke-linecap="round" stroke-linejoin="round"/>
<path d="M12.0215 2.19044V14.2314" stroke="#4E4B66" stroke-width="1.5" stroke-linecap="round" stroke-linejoin="round"/>
<path d="M9.10645 5.11816L12.0214 2.19016L14.9374 5.11816" stroke="#4E4B66" stroke-width="1.5" stroke-linecap="round" stroke-linejoin="round"/>
</svg>

<svg width="24" height="24" fill="none" xmlns="http://www.w3.org/2000/svg"><path d="M7.39 8.984h-.934a3.685 3.685 0 0 0-3.685 3.684v4.876a3.685 3.685 0 0 0 3.685 3.683h11.13a3.685 3.685 0 0 0 3.686-3.683v-4.886a3.675 3.675 0 0 0-3.674-3.674h-.944M12.021 2.19v12.041M9.106 5.118l2.915-2.928 2.916 2.928" stroke="#4E4B66" stroke-width="1.5" stroke-linecap="round" stroke-linejoin="round"/></svg>
